X:2012
T:Blue Eyed Stranger
R:Reel
C:Trad.
O:England
M:4/4
L:1/8
Q:1/4=160
K:G
"G"G2D2D2GF|"C"ED EF "G"G2A2|"G"B2d2 "D7"cB AG|"C"E2 "D7"F2 "G"G2 D2:|
"G"GA Bc d2G2|"C"ed cB "D7"A2D2|"G"GA Bc d2d2|"D7"B3c "G"d4|
"G"GA Bc d2G2|"C"ed cB "D7"A2GA|"G"B2d2 "D7"cBAG|"C"E2 "D7"F2 "G"G4|

